Numix-Light/16/status/indicator-keyboard-Pt-7.svg

<?xml version="1.0" encoding="UTF-8" standalone="no"?>
<svg
   xmlns:dc="http://purl.org/dc/elements/1.1/"
   xmlns:cc="http://creativecommons.org/ns#"
   xmlns:rdf="http://www.w3.org/1999/02/22-rdf-syntax-ns#"
   xmlns:svg="http://www.w3.org/2000/svg"
   xmlns="http://www.w3.org/2000/svg"
   xmlns:sodipodi="http://sodipodi.sourceforge.net/DTD/sodipodi-0.dtd"
   xmlns:inkscape="http://www.inkscape.org/namespaces/inkscape"
   viewBox="0 0 16 16"
   id="svg2"
   version="1.1"
   inkscape:version="0.91 r13725"
   sodipodi:docname="indicator-keyboard-Pt-7.svg">
  <metadata
     id="metadata14">
    <rdf:RDF>
      <cc:Work
         rdf:about="">
        <dc:format>image/svg+xml</dc:format>
        <dc:type
           rdf:resource="http://purl.org/dc/dcmitype/StillImage" />
      </cc:Work>
    </rdf:RDF>
  </metadata>
  <defs
     id="defs12" />
  <sodipodi:namedview
     pagecolor="#ffffff"
     bordercolor="#666666"
     borderopacity="1"
     objecttolerance="10"
     gridtolerance="10"
     guidetolerance="10"
     inkscape:pageopacity="0"
     inkscape:pageshadow="2"
     inkscape:window-width="640"
     inkscape:window-height="480"
     id="namedview10"
     showgrid="false"
     inkscape:zoom="14.75"
     inkscape:cx="8"
     inkscape:cy="8"
     inkscape:window-x="65"
     inkscape:window-y="24"
     inkscape:window-maximized="0"
     inkscape:current-layer="svg2" />
  <path
     style="fill:#353535;fill-opacity:1"
     d="M 1.5996094 0 C 0.71320937 2.9605947e-16 0 0.71320937 0 1.5996094 L 0 14.400391 C 2.9605947e-16 15.286791 0.71320937 16 1.5996094 16 L 14.400391 16 C 15.286791 16 16 15.286791 16 14.400391 L 16 1.5996094 C 16 0.71320937 15.286791 0 14.400391 0 L 1.5996094 0 z M 4.1425781 4.8046875 C 5.0245781 4.8046875 5.6832344 4.9725937 6.1152344 5.3085938 C 6.5472344 5.6445937 6.7617188 6.1222344 6.7617188 6.7402344 C 6.7617188 7.0942344 6.7002188 7.3964375 6.5742188 7.6484375 C 6.4482188 7.8944375 6.2672031 8.0959531 6.0332031 8.2519531 C 5.7992031 8.4019531 5.5119219 8.5139375 5.1699219 8.5859375 C 4.8339219 8.6519375 4.4533438 8.6835937 4.0273438 8.6835938 L 3.1796875 8.6835938 L 3.1796875 11.095703 L 2.5683594 11.095703 L 2.5683594 4.9765625 C 2.7843594 4.9165625 3.0362187 4.8736094 3.3242188 4.8496094 C 3.6182187 4.8196094 3.8905781 4.8046875 4.1425781 4.8046875 z M 8.4082031 4.9667969 L 8.4082031 6.4433594 L 10.261719 6.4433594 L 10.261719 6.9375 L 8.4082031 6.9375 L 8.4082031 9.4121094 C 8.4082031 9.6761094 8.4287031 9.8925467 8.4707031 10.060547 C 8.5187031 10.222547 8.5839688 10.349453 8.6679688 10.439453 C 8.7519687 10.529453 8.8546094 10.589141 8.9746094 10.619141 C 9.0946094 10.649141 9.2270938 10.664063 9.3710938 10.664062 C 9.6170937 10.664062 9.8148438 10.636031 9.9648438 10.582031 C 10.114843 10.522031 10.232406 10.469875 10.316406 10.421875 L 10.458984 10.90625 C 10.374984 10.96025 10.229531 11.023703 10.019531 11.095703 C 9.8095316 11.161703 9.5799844 11.195312 9.3339844 11.195312 C 9.0459844 11.195312 8.8034688 11.159891 8.6054688 11.087891 C 8.4134687 11.009891 8.2567188 10.894141 8.1367188 10.744141 C 8.0227188 10.588141 7.9425313 10.397922 7.8945312 10.169922 C 7.8465312 9.9419217 7.8222656 9.671375 7.8222656 9.359375 L 7.8222656 5.0742188 L 8.4082031 4.9667969 z M 4.1699219 5.3359375 C 3.9419219 5.3359375 3.7479375 5.3452813 3.5859375 5.3632812 C 3.4299375 5.3752813 3.2936875 5.3864375 3.1796875 5.3984375 L 3.1796875 8.1523438 L 3.9550781 8.1523438 C 4.2850781 8.1523438 4.5817031 8.1356094 4.8457031 8.0996094 C 5.1157031 8.0576094 5.3432969 7.9848125 5.5292969 7.8828125 C 5.7212969 7.7748125 5.8687031 7.6274062 5.9707031 7.4414062 C 6.0727031 7.2554062 6.1230469 7.0184688 6.1230469 6.7304688 C 6.1230469 6.4544687 6.067125 6.226875 5.953125 6.046875 C 5.845125 5.866875 5.6977187 5.7250469 5.5117188 5.6230469 C 5.3317188 5.5150469 5.124625 5.4404375 4.890625 5.3984375 C 4.656625 5.3564375 4.4159219 5.3359375 4.1699219 5.3359375 z M 10.96875 8.8417969 L 13.431641 8.8417969 L 13.431641 9.1816406 C 13.299041 9.3415406 13.152088 9.5551188 12.992188 9.8242188 C 12.836188 10.089419 12.689228 10.391163 12.548828 10.726562 C 12.408428 11.058062 12.284987 11.410756 12.179688 11.785156 C 12.078287 12.159556 12.015587 12.529884 11.992188 12.896484 L 11.587891 12.896484 C 11.611291 12.572784 11.670072 12.229888 11.763672 11.867188 C 11.861172 11.504488 11.978734 11.1518 12.115234 10.8125 C 12.255634 10.4732 12.406506 10.161653 12.566406 9.8769531 C 12.730206 9.5922532 12.886962 9.3649594 13.039062 9.1933594 L 10.96875 9.1933594 L 10.96875 8.8417969 z "
     id="path4" />
</svg>

<svg xmlns="http://www.w3.org/2000/svg" viewBox="0 0 16 16">
 <path d="m 1.6 0 c -0.886 0 -1.6 0.713 -1.6 1.6 l 0 12.801 c 0 0.886 0.713 1.6 1.6 1.6 l 12.801 0 c 0.886 0 1.6 -0.713 1.6 -1.6 l 0 -12.801 c 0 -0.886 -0.713 -1.6 -1.6 -1.6 l -12.801 0 z m 2.543 4.805 c 0.882 0 1.541 0.168 1.973 0.504 c 0.432 0.336 0.646 0.814 0.646 1.432 c 0 0.354 -0.061 0.656 -0.188 0.908 c -0.126 0.246 -0.307 0.448 -0.541 0.604 c -0.234 0.15 -0.521 0.262 -0.863 0.334 c -0.336 0.066 -0.717 0.098 -1.143 0.098 l -0.848 0 l 0 2.412 l -0.611 0 l 0 -6.119 c 0.216 -0.06 0.468 -0.103 0.756 -0.127 c 0.294 -0.03 0.566 -0.045 0.818 -0.045 z m 4.266 0.162 l 0 1.477 l 1.854 0 l 0 0.494 l -1.854 0 l 0 2.475 c 0 0.264 0.021 0.48 0.063 0.648 c 0.048 0.162 0.113 0.289 0.197 0.379 c 0.084 0.09 0.187 0.15 0.307 0.18 c 0.12 0.03 0.252 0.045 0.396 0.045 c 0.246 0 0.444 -0.028 0.594 -0.082 c 0.15 -0.06 0.268 -0.112 0.352 -0.16 l 0.143 0.484 c -0.084 0.054 -0.229 0.117 -0.439 0.189 c -0.21 0.066 -0.44 0.1 -0.686 0.1 c -0.288 0 -0.531 -0.035 -0.729 -0.107 c -0.192 -0.078 -0.349 -0.194 -0.469 -0.344 c -0.114 -0.156 -0.194 -0.346 -0.242 -0.574 c -0.048 -0.228 -0.072 -0.499 -0.072 -0.811 l 0 -4.285 l 0.586 -0.107 z m -4.238 0.369 c -0.228 0 -0.422 0.009 -0.584 0.027 c -0.156 0.012 -0.292 0.023 -0.406 0.035 l 0 2.754 l 0.775 0 c 0.33 0 0.627 -0.017 0.891 -0.053 c 0.27 -0.042 0.498 -0.115 0.684 -0.217 c 0.192 -0.108 0.339 -0.255 0.441 -0.441 c 0.102 -0.186 0.152 -0.423 0.152 -0.711 c 0 -0.276 -0.056 -0.504 -0.17 -0.684 c -0.108 -0.18 -0.255 -0.322 -0.441 -0.424 c -0.18 -0.108 -0.387 -0.183 -0.621 -0.225 c -0.234 -0.042 -0.475 -0.063 -0.721 -0.063 z m 6.799 3.506 l 2.463 0 l 0 0.34 c -0.133 0.16 -0.28 0.373 -0.439 0.643 c -0.156 0.265 -0.303 0.567 -0.443 0.902 c -0.14 0.332 -0.264 0.684 -0.369 1.059 c -0.101 0.374 -0.164 0.745 -0.188 1.111 l -0.404 0 c 0.023 -0.324 0.082 -0.667 0.176 -1.029 c 0.098 -0.363 0.215 -0.715 0.352 -1.055 c 0.14 -0.339 0.291 -0.651 0.451 -0.936 c 0.164 -0.285 0.321 -0.512 0.473 -0.684 l -2.07 0 l 0 -0.352 z" style="fill:#353535;fill-opacity:1"/>
</svg>
